X:18917
T:Woods of Old Limerick, The
R:jig
H:Played in G or D
D:Patrick Street: Irish Times
Z:id:hn-jig-228
M:6/8
K:G
BGG ABc|dgg fdc|B2G ABc|ADD ABc|
BGG ABc|dgg fdc|B2G ABc|1 AGF G2A:|2 AGF Gga||
|:bgf gag|fd^c dga|bgf gab|c'af g2a|
bag afd|~g3 fdc|B2G ABc|1 AGF Gga:|2 AGF G2A||
K:D
FDD EFG|Add cAG|FDD EFG|EA,A, EFG|
FDD EFG|Add cAG|F2D EAG|1 EDC D2E:|2 EDC D2e||
|:fdc ded|cA^G Aef|gec def|gec d2e|
fed ecA|~d3 cAG|F2D EAG|1 EDC D2e:|2 EDC D2E||


